public/home/awardPresent.svg

<svg width="220" height="237" viewBox="0 0 220 237" fill="none" xmlns="http://www.w3.org/2000/svg">
<g clip-path="url(#clip0_129_587)">
<path d="M200.751 67.8198C200.751 67.8198 227.611 75.6698 211.781 104.59C190.561 143.36 154.051 126.85 154.141 125.23C154.231 123.61 200.751 67.8198 200.751 67.8198ZM165.521 118.71C165.391 119.84 188.041 129.74 203.311 101.86C214.691 81.0598 197.841 76.7698 197.841 76.7698C197.841 76.7698 165.651 117.59 165.521 118.72V118.71Z" fill="#FFD600" stroke="black" stroke-width="6" stroke-linecap="round" stroke-linejoin="round"/>
<path d="M105.993 15.9497C105.993 15.9497 84.9026 -2.44033 69.0726 26.4697C47.8526 65.2397 81.4226 87.0897 82.7426 86.1497C84.0626 85.1997 105.983 15.9497 105.983 15.9497H105.993ZM82.1126 73.0497C81.2226 73.7697 60.6826 60.0197 75.9426 32.1297C87.3226 11.3297 100.033 23.2097 100.033 23.2097C100.033 23.2097 82.9926 72.3297 82.1126 73.0397V73.0497Z" fill="#FFD600" stroke="black" stroke-width="6" stroke-linecap="round" stroke-linejoin="round"/>
<path d="M79.0965 148.533L103.727 162.017C105.402 162.935 106.009 165.034 105.096 166.7L102.839 170.823L72.1565 154.025L74.4135 149.902C75.3308 148.227 77.4299 147.62 79.0965 148.533Z" fill="#FFD600" stroke="black" stroke-width="6" stroke-linecap="round" stroke-linejoin="round"/>
<path d="M72.456 152.473L103.998 169.741C105.91 170.788 106.604 173.186 105.562 175.09L103.377 179.081L64.9229 158.028L67.1079 154.037C68.1548 152.124 70.5526 151.431 72.456 152.473Z" fill="#FFD600" stroke="black" stroke-width="6" stroke-linecap="round" stroke-linejoin="round"/>
<path d="M211.069 60.9498C213.199 57.0498 191.589 41.1098 162.799 25.3498C133.999 9.57984 108.929 -0.0301564 106.789 3.86984C104.849 7.41984 52.4994 85.5498 88.9094 124.84L80.1694 149.41L102.429 161.59L118.599 140.75C168.059 147.58 209.139 64.4698 211.069 60.9498Z" fill="#FFD600" stroke="black" stroke-width="6" stroke-linecap="round" stroke-linejoin="round"/>
<path d="M88.9102 124.84C88.9102 124.84 94.8502 131.56 105.66 136.35L88.9102 124.84Z" fill="#FFD600"/>
<path d="M88.9102 124.84C88.9102 124.84 94.8502 131.56 105.66 136.35" stroke="black" stroke-width="6" stroke-linecap="round" stroke-linejoin="round"/>
<path d="M114.567 185.215L53.7109 151.897L32.4658 190.702L93.3223 224.02L114.567 185.215Z" fill="#534741" stroke="black" stroke-width="6" stroke-linecap="round" stroke-linejoin="round"/>
<path d="M95.9076 225.428L29.9023 189.291C29.0933 188.848 28.0784 189.145 27.6355 189.954L24.6966 195.322C24.2536 196.131 24.5504 197.146 25.3594 197.589L91.3647 233.725C92.1737 234.168 93.1886 233.872 93.6315 233.063L96.5704 227.694C97.0134 226.885 96.7166 225.87 95.9076 225.428Z" fill="#534741" stroke="black" stroke-width="6" stroke-linecap="round" stroke-linejoin="round"/>
<path d="M21.82 109.28C21.82 93.6798 13.4 81.0298 3 81.0298C13.39 81.0298 21.82 68.3798 21.82 52.7798C21.82 68.3798 30.24 81.0298 40.64 81.0298C30.25 81.0298 21.82 93.6798 21.82 109.28Z" fill="#FFD600" stroke="black" stroke-width="6" stroke-linecap="round" stroke-linejoin="round"/>
</g>
<defs>
<clipPath id="clip0_129_587">
<rect width="219.78" height="236.92" fill="white"/>
</clipPath>
</defs>
</svg>

<svg width="220" height="237" fill="none" xmlns="http://www.w3.org/2000/svg"><g clip-path="url(#a)"><path d="M200.751 67.82s26.86 7.85 11.03 36.77c-21.22 38.77-57.73 22.26-57.64 20.64.09-1.62 46.61-57.41 46.61-57.41zm-35.23 50.89c-.13 1.13 22.52 11.03 37.79-16.85 11.38-20.8-5.47-25.09-5.47-25.09s-32.19 40.82-32.32 41.95v-.01zM105.993 15.95s-21.09-18.39-36.92 10.52c-21.22 38.77 12.35 60.62 13.67 59.68 1.32-.95 23.24-70.2 23.24-70.2h.01zm-23.88 57.1c-.89.72-21.43-13.03-6.17-40.92 11.38-20.8 24.09-8.92 24.09-8.92s-17.04 49.12-17.92 49.83v.01zM79.097 148.533l24.63 13.484a3.45 3.45 0 0 1 1.369 4.683l-2.257 4.123-30.683-16.798 2.257-4.123a3.45 3.45 0 0 1 4.684-1.369z" fill="#FFD600" stroke="#000" stroke-width="6" stroke-linecap="round" stroke-linejoin="round"/><path d="m72.456 152.473 31.542 17.268a3.943 3.943 0 0 1 1.564 5.349l-2.185 3.991-38.454-21.053 2.185-3.991a3.94 3.94 0 0 1 5.348-1.564zM211.069 60.95c2.13-3.9-19.48-19.84-48.27-35.6-28.8-15.77-53.87-25.38-56.01-21.48-1.94 3.55-54.29 81.68-17.88 120.97l-8.74 24.57 22.26 12.18 16.17-20.84c49.46 6.83 90.54-76.28 92.47-79.8z" fill="#FFD600" stroke="#000" stroke-width="6" stroke-linecap="round" stroke-linejoin="round"/><path d="M88.91 124.84s5.94 6.72 16.75 11.51l-16.75-11.51z" fill="#FFD600"/><path d="M88.91 124.84s5.94 6.72 16.75 11.51" stroke="#000" stroke-width="6" stroke-linecap="round" stroke-linejoin="round"/><path d="m114.567 185.215-60.856-33.318-21.245 38.805 60.856 33.318 21.245-38.805z" fill="#534741" stroke="#000" stroke-width="6" stroke-linecap="round" stroke-linejoin="round"/><path d="m95.908 225.428-66.006-36.137a1.67 1.67 0 0 0-2.267.663l-2.938 5.368a1.67 1.67 0 0 0 .662 2.267l66.006 36.136a1.67 1.67 0 0 0 2.267-.662l2.938-5.369a1.669 1.669 0 0 0-.662-2.266z" fill="#534741" stroke="#000" stroke-width="6" stroke-linecap="round" stroke-linejoin="round"/><path d="M21.82 109.28c0-15.6-8.42-28.25-18.82-28.25 10.39 0 18.82-12.65 18.82-28.25 0 15.6 8.42 28.25 18.82 28.25-10.39 0-18.82 12.65-18.82 28.25z" fill="#FFD600" stroke="#000" stroke-width="6" stroke-linecap="round" stroke-linejoin="round"/></g><defs><clipPath id="a"><path fill="#fff" d="M0 0h219.78v236.92H0z"/></clipPath></defs></svg>
